X: 39679
T: Tenpenny Bit, The
R: jig
M: 6/8
K: Adorian
|:eAA eAA|BAB GBd|eAA eAA|def g3|
eAA eAA|BAB GBd|def gdB|BAG A2B:|
|:e2a aga|bge dBG|e2a aga|bge g2d|
e2a aga|bge dBG|efg dBA|BAA A2:|

